primevideo.svg

<svg viewBox="0 0 24 24" xmlns="http://www.w3.org/2000/svg"><path d="M12.2504 15.6804C12.1305 15.6774 12.0105 15.6774 11.8905 15.6804C11.7256 15.6714 11.5607 15.6654 11.3957 15.6534C10.9579 15.6204 10.5231 15.5544 10.0972 15.4555C8.62477 15.1136 7.33225 14.4269 6.20467 13.4282C6.09971 13.3353 6.00075 13.2393 5.89879 13.1433C5.8748 13.1223 5.8538 13.0924 5.84181 13.0624C5.82382 13.0204 5.83281 12.9754 5.8628 12.9424C5.89279 12.9094 5.94077 12.8974 5.98276 12.9154C6.00975 12.9274 6.03674 12.9394 6.06073 12.9544C7.13732 13.6202 8.31288 14.106 9.54542 14.3939C9.95927 14.4898 10.3761 14.5648 10.796 14.6188C11.3987 14.6938 12.0075 14.7207 12.6133 14.6998C12.9401 14.6908 13.264 14.6608 13.5879 14.6188C14.3436 14.5228 15.0903 14.3519 15.8131 14.112C16.1939 13.986 16.5658 13.8421 16.9287 13.6741C16.9826 13.6441 17.0486 13.6352 17.1086 13.6501C17.2075 13.6741 17.2675 13.7761 17.2435 13.8751C17.2405 13.8871 17.2345 13.9021 17.2285 13.914C17.2045 13.959 17.1716 13.998 17.1296 14.028C16.7847 14.2979 16.4128 14.5348 16.02 14.7327C15.2793 15.1076 14.4876 15.3745 13.6719 15.5274C13.201 15.6114 12.7272 15.6624 12.2504 15.6804ZM7.80907 9.60166C7.88404 9.55668 7.96201 9.5087 8.04298 9.46671C8.2529 9.35875 8.48682 9.30478 8.72373 9.31677C8.89466 9.32577 9.05061 9.37375 9.17056 9.4997C9.28452 9.61666 9.3265 9.7606 9.3385 9.91655C9.3415 9.94953 9.3415 9.98252 9.3415 10.0185L9.3415 11.5719C9.3415 11.7069 9.3235 11.7249 9.18855 11.7249L8.82269 11.7249C8.7987 11.7249 8.77471 11.7249 8.75072 11.7219C8.71473 11.7189 8.68474 11.6889 8.67875 11.6529C8.67275 11.6199 8.67275 11.5869 8.67275 11.5539L8.67275 10.1655C8.67575 10.1085 8.66975 10.0545 8.65475 10.0005C8.63076 9.90755 8.54679 9.84157 8.45083 9.83558C8.2739 9.82358 8.09696 9.85957 7.93502 9.93454C7.91103 9.94054 7.89604 9.96453 7.89904 9.98852L7.89904 11.5659C7.89904 11.5959 7.89904 11.6229 7.89304 11.6529C7.89304 11.6949 7.86005 11.7249 7.81807 11.7249L7.81807 11.7249C7.77308 11.7279 7.7281 11.7279 7.68012 11.7279L7.36224 11.7279C7.25128 11.7279 7.22729 11.7009 7.22729 11.5899L7.22729 10.1715C7.22729 10.1205 7.22429 10.0665 7.2123 10.0155C7.1913 9.91355 7.10434 9.84157 7.00237 9.83558C6.82244 9.82358 6.63951 9.85957 6.47757 9.93754C6.45358 9.94354 6.43859 9.97053 6.44458 9.99452L6.44458 11.5929C6.44458 11.7039 6.42059 11.7279 6.30963 11.7279L5.90778 11.7279C5.80282 11.7279 5.77583 11.6979 5.77583 11.5959L5.77583 9.5147C5.77583 9.49071 5.77883 9.46671 5.78483 9.44272C5.79683 9.40674 5.83281 9.38574 5.8688 9.38574L6.24366 9.38574C6.29764 9.38574 6.33063 9.41873 6.34862 9.46971C6.36361 9.5117 6.37261 9.55068 6.3876 9.59567C6.41759 9.59567 6.43559 9.57467 6.45658 9.56268C6.62152 9.46072 6.79545 9.37375 6.99038 9.33776C7.14032 9.30777 7.29027 9.30777 7.44021 9.33776C7.58116 9.36775 7.70711 9.45172 7.78808 9.57168C7.79408 9.58067 7.80007 9.58667 7.80607 9.59267C7.80307 9.59567 7.80607 9.59567 7.80907 9.60166ZM3.37673 9.71562C3.39773 9.70962 3.41572 9.69763 3.42771 9.67963C3.48169 9.62565 3.53867 9.57467 3.59865 9.52669C3.75459 9.40674 3.94952 9.34676 4.14445 9.36175C4.22242 9.36475 4.24941 9.38874 4.2554 9.46372C4.2614 9.56568 4.2584 9.67064 4.2584 9.7726C4.2614 9.81458 4.2584 9.85357 4.25241 9.89555C4.24041 9.94953 4.21942 9.97053 4.16544 9.97652C4.12345 9.97952 4.08447 9.97652 4.04248 9.97352C3.84156 9.95553 3.64663 9.99452 3.4577 10.0575C3.41572 10.0725 3.41572 10.1025 3.41572 10.1355L3.41572 11.5749C3.41572 11.6019 3.41572 11.6259 3.41272 11.6529C3.40972 11.6919 3.37973 11.7219 3.34075 11.7219C3.31976 11.7249 3.29576 11.7249 3.27477 11.7249L2.88492 11.7249C2.86393 11.7249 2.83994 11.7249 2.81894 11.7219C2.77996 11.7189 2.74997 11.6859 2.74697 11.6469C2.74397 11.6229 2.74397 11.5989 2.74397 11.5749L2.74397 9.53569C2.74397 9.39774 2.75897 9.38275 2.89691 9.38275L3.18481 9.38275C3.26278 9.38275 3.29876 9.40974 3.31976 9.48471C3.34075 9.55968 3.35874 9.63465 3.37673 9.71562ZM17.4055 12.7565C17.6034 12.7625 17.7983 12.7745 17.9903 12.8255C18.0442 12.8404 18.0952 12.8584 18.1462 12.8824C18.2152 12.9094 18.2602 12.9754 18.2691 13.0474C18.2811 13.1313 18.2841 13.2183 18.2781 13.3053C18.2392 13.8181 18.0802 14.3129 17.8163 14.7537C17.7204 14.9127 17.6034 15.0566 17.4684 15.1826C17.4415 15.2096 17.4085 15.2306 17.3725 15.2425C17.3155 15.2575 17.2795 15.2276 17.2765 15.1706C17.2795 15.1406 17.2855 15.1106 17.2975 15.0806C17.4025 14.7987 17.5044 14.5198 17.5854 14.2289C17.6334 14.07 17.6664 13.908 17.6874 13.7431C17.6934 13.6831 17.6964 13.6232 17.6904 13.5632C17.6874 13.4612 17.6214 13.3742 17.5224 13.3443C17.4295 13.3143 17.3335 13.2963 17.2345 13.2903C16.9586 13.2783 16.6827 13.2903 16.4098 13.3263L16.047 13.3713C16.008 13.3742 15.972 13.3713 15.951 13.3353C15.93 13.2993 15.939 13.2633 15.96 13.2273C15.984 13.1943 16.014 13.1643 16.05 13.1433C16.2719 12.9844 16.5208 12.8884 16.7847 12.8255C16.9886 12.7835 17.1956 12.7625 17.4055 12.7565ZM4.5463 10.5493L4.5463 9.48471C4.54929 9.41273 4.57628 9.38574 4.64826 9.38275C4.8042 9.37975 4.96014 9.37975 5.11608 9.38275C5.18506 9.38275 5.20605 9.40374 5.21205 9.47271C5.21504 9.4997 5.21504 9.52369 5.21504 9.55068L5.21504 11.5479C5.21504 11.5809 5.21205 11.6139 5.20905 11.6469C5.20605 11.6859 5.17606 11.7129 5.13707 11.7159C5.11908 11.7189 5.10409 11.7189 5.08609 11.7189L4.66925 11.7189C4.65425 11.7189 4.64226 11.7189 4.62726 11.7159C4.58528 11.7129 4.54929 11.6799 4.5463 11.6379C4.5433 11.6139 4.5433 11.5899 4.5433 11.5659C4.5463 11.2331 4.5463 10.8912 4.5463 10.5493ZM4.89416 8.30915C4.94215 8.30615 4.99013 8.31515 5.03511 8.33014C5.19705 8.38412 5.28102 8.52507 5.26603 8.708C5.25403 8.86394 5.13707 8.98989 4.98113 9.01388C4.91516 9.02588 4.84618 9.02588 4.78021 9.01388C4.60927 8.9809 4.48332 8.85494 4.49531 8.63902C4.51331 8.4261 4.65425 8.30915 4.89416 8.30915ZM2.30014 10.3034C2.28814 10.1475 2.24616 9.99452 2.18318 9.85357C2.06023 9.59567 1.8713 9.40674 1.58341 9.34076C1.25353 9.26879 0.956641 9.34076 0.686742 9.54169C0.668749 9.55968 0.647757 9.57467 0.623766 9.58667C0.617768 9.58367 0.611771 9.58067 0.611771 9.57767C0.602774 9.54768 0.596776 9.5177 0.58778 9.48771C0.563789 9.41273 0.5338 9.38574 0.45283 9.38574C0.362864 9.38574 0.269899 9.38874 0.179933 9.38574C0.110958 9.38275 0.047982 9.39174-1.77636e-15 9.44572C9.20547e-08 10.4953 9.20547e-08 11.5479 0.00299897 12.5945C0.0419843 12.6575 0.101962 12.6695 0.170936 12.6665C0.278895 12.6635 0.386855 12.6665 0.494815 12.6665C0.683744 12.6665 0.683744 12.6665 0.683744 12.4806L0.683744 11.6259C0.683744 11.6049 0.674747 11.5809 0.695739 11.5629C0.845683 11.6799 1.02861 11.7519 1.21754 11.7699C1.48144 11.7968 1.72135 11.7309 1.92228 11.5509C2.06922 11.416 2.17718 11.242 2.23416 11.0501C2.31513 10.8042 2.32113 10.5553 2.30014 10.3034ZM1.58341 10.9242C1.56241 11.0171 1.51443 11.1011 1.44546 11.1641C1.36749 11.2301 1.27152 11.269 1.16956 11.269C1.01662 11.278 0.866675 11.245 0.731726 11.1731C0.698738 11.1581 0.677746 11.1251 0.680745 11.0891L0.680745 10.5463C0.680745 10.3664 0.683744 10.1864 0.680745 10.0065C0.677746 9.96453 0.701737 9.92854 0.740722 9.91355C0.90566 9.83558 1.0766 9.79959 1.25653 9.83558C1.38248 9.85357 1.49044 9.93454 1.54142 10.0515C1.58641 10.1475 1.6134 10.2524 1.61939 10.3574C1.63739 10.5493 1.63739 10.7412 1.58341 10.9242ZM10.4361 10.7442C10.661 10.7862 10.8919 10.7892 11.1168 10.7532C11.2488 10.7352 11.3747 10.6963 11.4917 10.6333C11.6266 10.5553 11.7256 10.4473 11.7676 10.2974C11.8725 9.91954 11.7106 9.53869 11.3178 9.39774C11.1258 9.33476 10.9219 9.31377 10.721 9.34076C10.2472 9.39474 9.93827 9.65564 9.79733 10.1085C9.69836 10.4174 9.71036 10.7322 9.79133 11.0441C9.89629 11.443 10.1602 11.6799 10.559 11.7639C10.787 11.8148 11.0179 11.8058 11.2458 11.7699C11.3657 11.7489 11.4857 11.7189 11.5997 11.6739C11.6686 11.6469 11.7046 11.6049 11.7016 11.5269C11.6986 11.455 11.7016 11.38 11.7016 11.305C11.7016 11.2151 11.6656 11.1881 11.5787 11.2091C11.4917 11.2301 11.4077 11.248 11.3208 11.266C11.1348 11.305 10.9429 11.305 10.757 11.272C10.5021 11.2211 10.3371 11.0021 10.3521 10.7322C10.3791 10.7352 10.4091 10.7382 10.4361 10.7442ZM10.3611 10.2854C10.3701 10.2134 10.3911 10.1445 10.4181 10.0785C10.5081 9.85957 10.697 9.7846 10.8889 9.79659C10.9429 9.79959 10.9969 9.81159 11.0479 9.83258C11.1258 9.86556 11.1768 9.93754 11.1858 10.0215C11.1948 10.0725 11.1918 10.1265 11.1768 10.1774C11.1408 10.2854 11.0539 10.3304 10.9489 10.3514C10.8859 10.3664 10.8199 10.3724 10.754 10.3664C10.637 10.3664 10.5171 10.3574 10.4001 10.3394C10.3551 10.3334 10.3551 10.3334 10.3611 10.2854Z" fill="#00a8e1"/><path d="M14.0257 11.0951C14.0437 11.0351 14.0617 10.9781 14.0797 10.9182C14.2177 10.4533 14.3556 9.99152 14.4936 9.52669L14.5116 9.47271C14.5266 9.41873 14.5775 9.38574 14.6315 9.38574L15.0873 9.38574C15.2013 9.38574 15.2253 9.41873 15.1863 9.52669L15.0064 10.0035C14.8054 10.5253 14.6045 11.0501 14.4036 11.5719C14.3976 11.5899 14.3886 11.6079 14.3826 11.6259C14.3616 11.6889 14.2986 11.7309 14.2327 11.7249C14.1007 11.7219 13.9688 11.7219 13.8368 11.7249C13.7438 11.7279 13.6899 11.6859 13.6569 11.6019C13.5819 11.404 13.5039 11.2031 13.429 11.0051C13.249 10.5343 13.0661 10.0635 12.8862 9.58967C12.8682 9.55368 12.8562 9.5117 12.8472 9.47271C12.8382 9.41273 12.8592 9.38275 12.9192 9.38275C13.0901 9.37975 13.261 9.38275 13.429 9.38275C13.5009 9.38275 13.5339 9.43073 13.5519 9.4937C13.5849 9.60766 13.6179 9.72462 13.6539 9.83857C13.7768 10.2554 13.8968 10.6753 14.0197 11.0921C14.0167 11.0951 14.0197 11.0951 14.0257 11.0951ZM16.1489 10.5553L16.1489 11.6349C16.1429 11.6949 16.116 11.7219 16.056 11.7249C15.894 11.7279 15.7351 11.7279 15.5732 11.7249C15.5132 11.7249 15.4862 11.6949 15.4802 11.6379C15.4772 11.6199 15.4772 11.5989 15.4772 11.5809L15.4772 9.5057C15.4802 9.41273 15.5042 9.38574 15.5972 9.38574L16.029 9.38574C16.122 9.38574 16.1489 9.41273 16.1489 9.5057L16.1489 10.5553L16.1489 10.5553ZM15.8161 8.30915C15.876 8.30315 15.936 8.31515 15.993 8.33914C16.11 8.38412 16.1909 8.49208 16.1969 8.61803C16.2209 8.89093 16.038 9.02888 15.7951 9.02288C15.7621 9.02288 15.7291 9.01688 15.6961 9.01089C15.5102 8.9659 15.4142 8.82196 15.4322 8.61503C15.4472 8.4501 15.5762 8.32714 15.7531 8.31215C15.7741 8.30915 15.7951 8.30615 15.8161 8.30915ZM23.997 10.3694L23.997 10.3814C23.985 10.3694 23.979 10.3514 23.985 10.3364L23.985 10.3124C23.985 10.3124 23.985 10.3094 23.988 10.3094L23.985 10.3094L23.985 10.2794L23.991 10.2794C23.991 10.2764 23.988 10.2764 23.988 10.2734C23.982 10.2164 23.97 10.1595 23.955 10.1055C23.8441 9.70962 23.5952 9.44872 23.1903 9.34676C23.0014 9.30178 22.8094 9.29578 22.6175 9.32577C22.2127 9.38574 21.9218 9.60166 21.7808 9.98552C21.6429 10.3514 21.6459 10.7532 21.7838 11.1191C21.9038 11.452 22.1437 11.6619 22.4886 11.7489C22.6715 11.7938 22.8634 11.8058 23.0524 11.7788C23.6821 11.7039 23.943 11.2271 23.985 10.8132L23.982 10.8132L23.982 10.7712C23.979 10.7532 23.976 10.7382 23.994 10.7262L23.994 10.7322C23.994 10.7292 23.997 10.7232 24 10.7202L24 10.3754C24 10.3724 23.997 10.3724 23.997 10.3694ZM23.2773 10.9392C23.2593 11.0021 23.2323 11.0591 23.1933 11.1131C23.1273 11.2061 23.0224 11.266 22.9084 11.275C22.8514 11.281 22.7945 11.281 22.7375 11.269C22.6115 11.245 22.5066 11.1611 22.4556 11.0441C22.4106 10.9512 22.3836 10.8492 22.3746 10.7472C22.3596 10.5703 22.3566 10.3934 22.3986 10.2194C22.4136 10.1505 22.4436 10.0815 22.4796 10.0215C22.5455 9.91355 22.6595 9.84457 22.7855 9.83558C22.8424 9.82958 22.8994 9.82958 22.9564 9.84157C23.0763 9.86557 23.1753 9.94354 23.2293 10.0545C23.2803 10.1595 23.3103 10.2764 23.3163 10.3934C23.3193 10.4473 23.3223 10.5013 23.3193 10.5553C23.3283 10.6873 23.3133 10.8162 23.2773 10.9392ZM18.74 8.33014L18.3231 8.33014C18.2092 8.33014 18.1882 8.35113 18.1882 8.46509L18.1882 9.43673C18.1882 9.45772 18.1972 9.47871 18.1822 9.4997C18.1552 9.4967 18.1402 9.47871 18.1192 9.46671C17.8073 9.28378 17.4804 9.2508 17.1506 9.40374C16.9197 9.5117 16.7757 9.70662 16.6827 9.93754C16.5928 10.1595 16.5718 10.3934 16.5778 10.6303C16.5778 10.8522 16.6288 11.0711 16.7277 11.269C16.8417 11.488 17.0066 11.6559 17.2465 11.7279C17.5734 11.8298 17.8793 11.7788 18.1582 11.5719C18.1792 11.5599 18.1912 11.5389 18.2182 11.5329C18.2332 11.5659 18.2452 11.6019 18.2512 11.6379C18.2632 11.6859 18.3051 11.7189 18.3561 11.7189L18.4281 11.7189C18.536 11.7189 18.641 11.7219 18.746 11.7189C18.8299 11.7189 18.8539 11.6919 18.8569 11.6049L18.8569 8.4441C18.8539 8.35113 18.8299 8.33014 18.74 8.33014ZM18.1912 10.5373L18.1912 11.0831C18.1972 11.1191 18.1762 11.1521 18.1432 11.1671C17.9992 11.248 17.8343 11.281 17.6724 11.257C17.5344 11.242 17.4145 11.1581 17.3515 11.0351C17.3035 10.9392 17.2765 10.8372 17.2675 10.7322C17.2435 10.5433 17.2585 10.3514 17.3035 10.1685C17.3185 10.1175 17.3365 10.0695 17.3635 10.0215C17.4265 9.90455 17.5464 9.82958 17.6784 9.82058C17.8373 9.80559 17.9963 9.83558 18.1402 9.90155C18.1762 9.91355 18.1972 9.94953 18.1942 9.98852C18.1882 10.1744 18.1912 10.3544 18.1912 10.5373L18.1912 10.5373ZM20.5513 10.7742C20.7252 10.7622 20.8992 10.7292 21.0551 10.6453C21.214 10.5673 21.325 10.4204 21.358 10.2464C21.379 10.1385 21.379 10.0245 21.355 9.91655C21.292 9.64665 21.1211 9.47871 20.8632 9.39174C20.7192 9.34676 20.5663 9.32877 20.4163 9.33476C19.9125 9.34676 19.5287 9.60166 19.3727 10.1055C19.2678 10.4384 19.2828 10.7772 19.3847 11.1101C19.4897 11.452 19.7296 11.6589 20.0715 11.7519C20.2184 11.7878 20.3714 11.8028 20.5213 11.7968C20.7402 11.7938 20.9591 11.7519 21.1661 11.6739C21.253 11.6409 21.274 11.6109 21.274 11.5179L21.274 11.302C21.271 11.2151 21.235 11.1851 21.1481 11.2061C21.0821 11.2241 21.0191 11.239 20.9531 11.254C20.7522 11.302 20.5423 11.311 20.3384 11.275C20.1344 11.2361 19.9965 11.1191 19.9425 10.9152C19.9275 10.8552 19.9155 10.7952 19.9095 10.7322C19.9245 10.7322 19.9395 10.7322 19.9515 10.7382C20.1494 10.7742 20.3504 10.7892 20.5513 10.7742ZM19.9245 10.2944C19.9455 10.1774 19.9725 10.0635 20.0445 9.96753C20.1554 9.82058 20.3084 9.7786 20.4823 9.79659C20.4973 9.79659 20.5093 9.80259 20.5243 9.80259C20.7342 9.83558 20.7852 10.0035 20.7462 10.1655C20.7162 10.2854 20.6173 10.3304 20.5063 10.3514C20.4463 10.3634 20.3834 10.3694 20.3204 10.3664C20.1974 10.3634 20.0775 10.3544 19.9575 10.3364C19.9305 10.3334 19.9185 10.3214 19.9245 10.2944L19.9245 10.2944Z" fill="#232f3e"/></svg>

<svg viewBox="0 0 24 24" xmlns="http://www.w3.org/2000/svg"><path d="M12.25 15.68a7.197 7.197 0 0 0-.36 0c-.164-.009-.33-.015-.494-.027a8.604 8.604 0 0 1-1.299-.197 8.794 8.794 0 0 1-3.892-2.028c-.105-.093-.204-.189-.306-.285a.22.22 0 0 1-.057-.08.11.11 0 0 1 .02-.12.106.106 0 0 1 .12-.028c.028.012.055.024.079.04a11.667 11.667 0 0 0 3.484 1.439 11.515 11.515 0 0 0 3.068.306 9.63 9.63 0 0 0 .975-.081 11.789 11.789 0 0 0 2.225-.507 10.5 10.5 0 0 0 1.116-.438.25.25 0 0 1 .18-.024.186.186 0 0 1 .12.264.328.328 0 0 1-.1.114c-.344.27-.716.507-1.109.705a8.785 8.785 0 0 1-2.348.794c-.471.084-.945.135-1.422.153ZM7.81 9.602c.074-.045.152-.093.233-.135a1.34 1.34 0 0 1 .68-.15c.172.009.328.057.448.183.114.117.155.26.168.417.002.033.002.066.002.101v1.554c0 .135-.018.153-.152.153h-.366c-.024 0-.048 0-.072-.003a.083.083 0 0 1-.072-.07c-.006-.032-.006-.065-.006-.098v-1.389a.507.507 0 0 0-.018-.164.224.224 0 0 0-.204-.165 1.059 1.059 0 0 0-.516.099.05.05 0 0 0-.036.054v1.577c0 .03 0 .057-.006.087 0 .042-.033.072-.075.072-.045.003-.09.003-.138.003h-.318c-.11 0-.135-.027-.135-.138v-1.418a.688.688 0 0 0-.015-.157.226.226 0 0 0-.21-.18 1.056 1.056 0 0 0-.524.103c-.024.006-.04.033-.033.057v1.598c0 .11-.024.135-.135.135h-.402c-.105 0-.132-.03-.132-.132V9.515c0-.024.003-.048.009-.072a.087.087 0 0 1 .084-.057h.375c.054 0 .087.033.105.084.015.042.024.08.039.126.03 0 .048-.021.069-.033.165-.102.338-.19.533-.225.15-.03.3-.03.45 0 .141.03.267.114.348.234a.13.13 0 0 0 .018.02c-.003.004 0 .004.003.01Zm-4.433.114a.09.09 0 0 0 .05-.036c.055-.054.112-.105.172-.153.156-.12.35-.18.545-.165.078.003.105.027.111.102.006.102.003.207.003.309a.564.564 0 0 1-.006.123c-.012.054-.033.075-.087.08-.042.004-.08 0-.123-.002-.2-.018-.395.02-.584.083-.042.015-.042.045-.042.079v1.439c0 .027 0 .05-.003.078a.072.072 0 0 1-.072.069c-.021.003-.045.003-.066.003h-.39c-.021 0-.045 0-.066-.003a.08.08 0 0 1-.072-.075c-.003-.024-.003-.048-.003-.072v-2.04c0-.137.015-.152.153-.152h.288c.078 0 .114.027.135.102.02.075.039.15.057.23Zm14.029 3.04c.197.006.392.018.584.07a.964.964 0 0 1 .156.056.202.202 0 0 1 .123.165c.012.084.015.171.01.258a3.305 3.305 0 0 1-.463 1.449 1.997 1.997 0 0 1-.348.429.245.245 0 0 1-.096.06c-.056.014-.093-.015-.096-.072a.326.326 0 0 1 .021-.09c.105-.282.207-.561.288-.852.048-.159.081-.321.102-.486a.902.902 0 0 0 .003-.18.234.234 0 0 0-.168-.219 1.162 1.162 0 0 0-.287-.054c-.276-.012-.552 0-.825.036l-.363.045c-.039.003-.075 0-.096-.036-.021-.036-.012-.072.009-.108a.301.301 0 0 1 .09-.084c.222-.159.47-.255.735-.318.204-.041.41-.063.62-.068ZM4.546 10.55V9.485c.003-.072.03-.1.102-.102.156-.003.312-.003.468 0 .07 0 .09.02.096.09a.68.68 0 0 1 .003.078v1.997c0 .033-.003.066-.006.099-.003.039-.033.066-.072.069-.018.003-.033.003-.05.003h-.418c-.015 0-.027 0-.042-.003a.087.087 0 0 1-.08-.078c-.004-.024-.004-.048-.004-.072.003-.333.003-.675.003-1.017Zm.348-2.24a.375.375 0 0 1 .141.021c.162.054.246.195.231.378a.335.335 0 0 1-.285.306.565.565 0 0 1-.2 0c-.172-.033-.298-.16-.286-.375.018-.213.16-.33.4-.33ZM2.3 10.303a1.366 1.366 0 0 0-.117-.45c-.123-.257-.312-.446-.6-.512a1.06 1.06 0 0 0-.896.2.24.24 0 0 1-.063.046c-.006-.003-.012-.006-.012-.01-.01-.03-.015-.06-.024-.09-.024-.074-.054-.101-.135-.101-.09 0-.183.003-.273 0-.069-.003-.132.006-.18.06 0 1.05 0 2.102.003 3.149.039.063.099.074.168.071.108-.002.216 0 .324 0 .189 0 .189 0 .189-.185v-.855c0-.021-.01-.045.012-.063.15.117.333.189.522.207a.88.88 0 0 0 .704-.22 1.11 1.11 0 0 0 .312-.5c.081-.246.087-.495.066-.747Zm-.717.621a.462.462 0 0 1-.138.24.427.427 0 0 1-.275.105.824.824 0 0 1-.438-.096.085.085 0 0 1-.051-.084v-.543c0-.18.003-.36 0-.54a.091.091 0 0 1 .06-.092c.165-.078.336-.114.516-.078a.366.366 0 0 1 .284.216c.045.096.072.2.078.305.018.192.018.384-.036.567Zm8.853-.18c.225.042.456.045.68.01.133-.019.259-.058.376-.12a.558.558 0 0 0 .276-.337c.104-.377-.057-.758-.45-.9a1.342 1.342 0 0 0-.597-.056c-.474.054-.783.315-.924.768a1.655 1.655 0 0 0-.006.935c.105.399.37.636.768.72.228.05.459.042.687.006.12-.021.24-.051.354-.096.069-.027.105-.07.102-.147-.003-.072 0-.147 0-.222 0-.09-.036-.117-.123-.096a7.996 7.996 0 0 1-.258.057 1.485 1.485 0 0 1-.564.006.502.502 0 0 1-.405-.54c.027.003.057.006.084.012Zm-.075-.459a.814.814 0 0 1 .057-.207c.09-.218.279-.293.47-.281a.49.49 0 0 1 .16.036.229.229 0 0 1 .138.188.344.344 0 0 1-.01.156c-.035.108-.122.153-.227.174-.063.015-.13.021-.195.015-.117 0-.237-.009-.354-.027-.045-.006-.045-.006-.039-.054Z" fill="#00a8e1"/><path d="m14.026 11.095.054-.177.414-1.391.018-.054a.122.122 0 0 1 .12-.087h.455c.114 0 .138.033.1.14l-.18.478c-.202.521-.402 1.046-.603 1.568l-.021.054a.146.146 0 0 1-.15.099 8.709 8.709 0 0 0-.396 0c-.093.003-.147-.04-.18-.123l-.228-.597c-.18-.47-.363-.942-.543-1.415a.536.536 0 0 1-.039-.117c-.009-.06.012-.09.072-.09.171-.003.342 0 .51 0 .072 0 .105.048.123.11.033.115.066.232.102.346.123.416.243.836.366 1.253-.003.003 0 .003.006.003Zm2.123-.54v1.08c-.006.06-.033.087-.093.09-.162.003-.32.003-.483 0-.06 0-.087-.03-.093-.087-.003-.018-.003-.04-.003-.057V9.506c.003-.093.027-.12.12-.12h.432c.093 0 .12.027.12.12v1.05Zm-.333-2.246c.06-.006.12.006.177.03a.315.315 0 0 1 .204.279c.024.273-.159.41-.402.405-.033 0-.066-.006-.099-.012-.186-.045-.282-.189-.264-.396.015-.165.144-.288.321-.303.021-.003.042-.006.063-.003Zm8.181 2.06v.012c-.012-.012-.018-.03-.012-.045v-.024s0-.003.003-.003h-.003v-.03h.006c0-.003-.003-.003-.003-.006a1.039 1.039 0 0 0-.033-.168c-.11-.395-.36-.656-.765-.758a1.474 1.474 0 0 0-.573-.021c-.404.06-.695.276-.836.66-.138.365-.135.767.003 1.133.12.333.36.543.705.63.183.045.374.057.563.03.63-.075.891-.552.933-.966h-.003v-.042c-.003-.018-.006-.033.012-.045v.006c0-.003.003-.009.006-.012v-.345c0-.003-.003-.003-.003-.006Zm-.72.57a.55.55 0 0 1-.084.174.388.388 0 0 1-.285.162.545.545 0 0 1-.17-.006.385.385 0 0 1-.282-.225.857.857 0 0 1-.081-.297 1.641 1.641 0 0 1 .024-.528.673.673 0 0 1 .08-.197.39.39 0 0 1 .306-.186.546.546 0 0 1 .171.006c.12.024.22.102.273.213a.885.885 0 0 1 .087.338c.003.054.006.108.003.162.01.132-.006.261-.042.384ZM18.74 8.33h-.417c-.114 0-.135.021-.135.135v.972c0 .02.01.042-.006.063-.027-.003-.042-.021-.063-.033-.312-.183-.639-.216-.968-.063-.231.108-.375.303-.468.534-.09.221-.111.455-.105.692 0 .222.05.441.15.639.114.219.279.387.518.459.327.102.633.05.912-.156.021-.012.033-.033.06-.04a.427.427 0 0 1 .033.106.106.106 0 0 0 .105.08h.072c.108 0 .213.004.318 0 .084 0 .108-.026.11-.113v-3.16c-.002-.094-.026-.115-.116-.115Zm-.549 2.207v.546a.079.079 0 0 1-.048.084.74.74 0 0 1-.47.09.41.41 0 0 1-.321-.222.83.83 0 0 1-.085-.303 1.549 1.549 0 0 1 .037-.563.689.689 0 0 1 .06-.148.387.387 0 0 1 .314-.2.905.905 0 0 1 .462.08.083.083 0 0 1 .054.088c-.006.185-.003.365-.003.548Zm2.36.237a1.23 1.23 0 0 0 .504-.129.558.558 0 0 0 .303-.399.814.814 0 0 0-.003-.33c-.063-.27-.234-.437-.492-.524a1.328 1.328 0 0 0-.447-.057c-.503.012-.887.267-1.043.77-.105.333-.09.672.012 1.005.105.342.345.549.686.642.147.036.3.05.45.045.22-.003.438-.045.645-.123.087-.033.108-.063.108-.156v-.216c-.003-.087-.039-.117-.126-.096a4.614 4.614 0 0 1-.195.048c-.2.048-.41.057-.615.021a.47.47 0 0 1-.396-.36 1.23 1.23 0 0 1-.032-.183c.014 0 .03 0 .041.006.198.036.4.051.6.036Zm-.627-.48a.743.743 0 0 1 .12-.326c.111-.147.264-.19.438-.171.015 0 .027.006.042.006.21.033.261.2.222.362-.03.12-.129.165-.24.186a.766.766 0 0 1-.186.015 2.911 2.911 0 0 1-.363-.03c-.027-.003-.038-.015-.033-.042Z" fill="#232f3e"/></svg>
